dist/files/common/icon-subscribe.svg

<svg width="32" height="32" viewBox="0 0 32 32" fill="none" xmlns="http://www.w3.org/2000/svg">
<path d="M26.1601 9.45741C26.0705 8.94976 25.8232 8.48324 25.4534 8.12407C25.041 7.90889 24.5851 7.79034 24.1201 7.77741C21.3224 7.61691 18.5178 7.61691 15.7201 7.77741C11.6001 7.96407 7.48011 8.51074 6.38678 9.31074C6.19911 9.44405 6.07014 9.64466 6.02678 9.87074C5.88693 10.6314 5.82439 11.4042 5.84011 12.1774C5.80616 15.437 5.96198 18.6959 6.30678 21.9374C6.3299 22.0453 6.39392 22.14 6.48539 22.2017C6.57686 22.2634 6.68867 22.2873 6.79736 22.2683C6.90604 22.2493 7.00316 22.189 7.06831 22.0999C7.13346 22.0109 7.16158 21.9001 7.14678 21.7907C6.98481 20.2049 6.90915 18.6114 6.92011 17.0174C6.92011 14.9374 6.92011 12.6841 7.05345 11.2707C7.0454 11.1865 7.0454 11.1017 7.05345 11.0174C8.49345 12.0174 10.9734 13.6841 13.0534 14.8841C14.1257 15.5597 15.3227 16.0131 16.5734 16.2174C17.6857 15.8553 18.7147 15.2751 19.6001 14.5107C21.3838 13.1485 23.0558 11.646 24.6001 10.0174C24.6446 10.1205 24.6757 10.2272 24.6934 10.3374C24.8578 11.4902 24.9424 12.653 24.9468 13.8174C24.998 16.1052 24.9089 18.3939 24.6801 20.6707C24.6872 20.7641 24.6872 20.8574 24.6801 20.9507H24.1334C22.2668 21.1507 18.2401 21.4441 14.5468 21.6841C11.4801 21.8841 8.64011 22.0307 7.44011 22.0574C7.37769 22.0574 7.3159 22.0699 7.25839 22.0942C7.20089 22.1184 7.14884 22.154 7.10532 22.1988C7.06181 22.2435 7.02772 22.2966 7.00507 22.3547C6.98241 22.4129 6.97166 22.475 6.97345 22.5374C6.97345 22.6647 7.02402 22.7868 7.11403 22.8768C7.20405 22.9668 7.32614 23.0174 7.45345 23.0174C9.64011 23.0174 17.1868 22.7507 21.7468 22.4974C23.2534 22.4174 24.4134 22.3374 25.0001 22.2707C25.2272 22.2564 25.4492 22.1975 25.6534 22.0974C25.79 22.0057 25.8967 21.8759 25.9601 21.7241C26.0534 21.4467 26.1201 21.1623 26.1601 20.8707C26.4588 18.5227 26.6001 16.1574 26.5868 13.7907C26.5927 12.3355 26.4498 10.8835 26.1601 9.45741ZM17.4668 14.0441C17.1674 14.273 16.8284 14.4447 16.4668 14.5507C16.1414 14.5059 15.8259 14.4067 15.5334 14.2574C14.7868 13.9507 13.8134 13.4707 12.7734 12.9241C10.8134 11.9907 8.65345 10.7907 7.38678 10.0974C9.53193 9.5632 11.7362 9.30335 13.9468 9.32407C17.2291 9.15541 20.5178 9.15541 23.8001 9.32407C22.9734 10.0841 21.6801 11.1107 20.3734 12.0707C19.3334 12.8574 18.2801 13.5641 17.4668 14.0441ZM3.44011 4.61741C3.23432 4.31611 2.97161 4.05793 2.66678 3.85741C2.30678 3.61741 1.93345 3.48407 1.56011 3.27074C1.5235 3.22351 1.47738 3.18449 1.42473 3.15622C1.37208 3.12795 1.31408 3.11105 1.25448 3.10662C1.19488 3.1022 1.13502 3.11034 1.07877 3.13052C1.02252 3.15071 0.971142 3.18248 0.927956 3.22379C0.884771 3.2651 0.850745 3.31502 0.828082 3.37031C0.805419 3.42561 0.794625 3.48505 0.7964 3.54479C0.798174 3.60452 0.812477 3.66322 0.838382 3.71707C0.864288 3.77092 0.901217 3.81874 0.946778 3.85741C1.16722 4.32674 1.42945 4.77118 1.73345 5.19074C1.921 5.39785 2.12989 5.58007 2.36011 5.73741C2.69345 5.99074 3.05345 6.16407 3.38678 6.43074C3.47626 6.5171 3.59576 6.56536 3.72011 6.56536C3.84447 6.56536 3.96397 6.5171 4.05345 6.43074C4.09819 6.38615 4.1337 6.33316 4.15793 6.27481C4.18215 6.21647 4.19462 6.15392 4.19462 6.09074C4.19462 6.02757 4.18215 5.96501 4.15793 5.90667C4.1337 5.84832 4.09819 5.79533 4.05345 5.75074C3.88608 5.35404 3.68067 4.97449 3.44011 4.61741ZM1.44011 15.9907C1.63211 16.0174 1.82322 16.0174 2.01345 15.9907C2.32011 15.9907 2.56011 15.8441 2.86678 15.8307C2.92632 15.8468 2.98845 15.8509 3.04958 15.8428C3.11072 15.8348 3.16965 15.8146 3.22296 15.7836C3.27627 15.7526 3.32291 15.7114 3.36019 15.6623C3.39746 15.6131 3.42462 15.5571 3.44011 15.4974C3.45823 15.437 3.46391 15.3735 3.45682 15.3109C3.44973 15.2482 3.43001 15.1876 3.39886 15.1328C3.36771 15.078 3.32576 15.03 3.27556 14.9919C3.22536 14.9537 3.16794 14.9261 3.10678 14.9107C2.81247 14.7166 2.4881 14.5724 2.14678 14.4841C1.88336 14.4052 1.60718 14.3781 1.33345 14.4041C1.00011 14.4841 0.760112 14.6307 0.440112 14.7374C0.371169 14.7352 0.302728 14.7498 0.240651 14.7799C0.178575 14.81 0.124715 14.8546 0.0836864 14.9101C0.0426578 14.9655 0.0156838 15.0301 0.0050759 15.0982C-0.00553205 15.1664 0.000542293 15.2361 0.0227784 15.3014C0.0505461 15.3803 0.101611 15.449 0.169223 15.4982C0.236835 15.5475 0.31781 15.5751 0.401445 15.5774C0.730334 15.757 1.07567 15.8947 1.44011 15.9907ZM2.89345 26.1774C2.54678 26.3774 2.21345 26.5107 1.88011 26.7107C1.7365 26.7885 1.60229 26.8824 1.48011 26.9907C1.35162 27.0926 1.23529 27.2089 1.13345 27.3374C0.898778 27.661 0.694334 28.0032 0.520112 28.3641C0.481591 28.4026 0.451034 28.4483 0.430187 28.4987C0.409339 28.549 0.398609 28.6029 0.398609 28.6574C0.398609 28.7674 0.442315 28.8729 0.520112 28.9507C0.597909 29.0285 0.703424 29.0722 0.813445 29.0722C0.923466 29.0722 1.02898 29.0285 1.10678 28.9507C1.48011 28.7641 1.81345 28.6707 2.16011 28.4574C2.29878 28.3774 2.42767 28.2841 2.54678 28.1774C2.66474 28.0686 2.77605 27.9529 2.88011 27.8307C3.13345 27.5107 3.32011 27.1907 3.54678 26.8574C3.59319 26.8138 3.63018 26.7611 3.65547 26.7026C3.68075 26.6441 3.69379 26.5811 3.69379 26.5174C3.69379 26.4537 3.68075 26.3907 3.65547 26.3322C3.63018 26.2737 3.59319 26.221 3.54678 26.1774C3.45799 26.0949 3.34129 26.0491 3.22011 26.0491C3.09893 26.0491 2.98223 26.0949 2.89345 26.1774ZM28.7468 5.97741C29.0899 5.77918 29.4188 5.56141 29.7334 5.32407C29.8561 5.22007 29.9717 5.10896 30.0801 4.99074C30.1868 4.88052 30.2801 4.76052 30.3601 4.63074C30.5734 4.29741 30.6801 3.96407 30.8934 3.64407C30.9694 3.56262 31.0116 3.45542 31.0116 3.34407C31.0116 3.23273 30.9694 3.12553 30.8934 3.04407C30.8142 2.96905 30.7092 2.92725 30.6001 2.92725C30.491 2.92725 30.386 2.96905 30.3068 3.04407C29.9201 3.20007 29.5468 3.39607 29.2001 3.63074C29.064 3.7283 28.9427 3.84507 28.8401 3.97741C28.7361 4.09741 28.6428 4.2263 28.5601 4.36407C28.3468 4.69741 28.2134 5.03074 28.0268 5.37741C27.9824 5.42086 27.9472 5.47272 27.9231 5.52996C27.8991 5.58719 27.8867 5.64866 27.8867 5.71074C27.8867 5.77283 27.8991 5.83429 27.9231 5.89152C27.9472 5.94876 27.9824 6.00062 28.0268 6.04407C28.0764 6.09129 28.1355 6.12734 28.2003 6.1498C28.265 6.17227 28.3337 6.18062 28.4019 6.17431C28.4701 6.16799 28.5362 6.14715 28.5957 6.11319C28.6551 6.07923 28.7067 6.03293 28.7468 5.97741ZM31.4934 13.9907C31.1068 13.9907 30.7868 13.8041 30.4001 13.7507C30.2359 13.7375 30.071 13.7375 29.9068 13.7507C29.7381 13.7379 29.5688 13.7379 29.4001 13.7507C28.9752 13.8201 28.5619 13.9356 28.1601 14.0974C28.0347 14.1171 27.9222 14.1857 27.8472 14.2881C27.7723 14.3906 27.7409 14.5186 27.7601 14.6441C27.7681 14.7069 27.7889 14.7675 27.8211 14.8221C27.8533 14.8767 27.8963 14.9242 27.9475 14.9616C27.9986 14.999 28.0568 15.0256 28.1186 15.0398C28.1804 15.054 28.2444 15.0554 28.3068 15.0441C28.6934 15.0441 29.0534 15.2174 29.4401 15.2707C29.713 15.2974 29.9841 15.2974 30.2534 15.2707C30.7508 15.1907 31.2294 15.0241 31.6668 14.7774C31.7212 14.7681 31.7732 14.7476 31.8193 14.7172C31.8654 14.6868 31.9048 14.6472 31.9348 14.6008C31.9649 14.5545 31.985 14.5024 31.994 14.4479C32.0029 14.3934 32.0005 14.3376 31.9868 14.2841C31.9558 14.1826 31.888 14.0963 31.7968 14.0421C31.7056 13.9878 31.5974 13.9695 31.4934 13.9907ZM29.8934 26.0974C29.7244 25.9279 29.5464 25.7677 29.3601 25.6174L28.7601 25.2041C28.2534 24.8974 27.7468 24.6574 27.2268 24.4041C27.1757 24.3665 27.1175 24.3398 27.0558 24.3254C26.994 24.3111 26.93 24.3095 26.8676 24.3207C26.8053 24.332 26.7458 24.3558 26.693 24.3908C26.6401 24.4257 26.5949 24.4711 26.5601 24.5241C26.4912 24.6295 26.4653 24.7573 26.4876 24.8813C26.5099 25.0052 26.5788 25.1159 26.6801 25.1907C27.0934 25.5907 27.4401 26.0307 27.8534 26.4307C28.1246 26.6974 28.4134 26.9418 28.7201 27.1641C29.2872 27.5054 29.8739 27.8076 30.4801 28.0707C30.5692 28.1359 30.6802 28.164 30.7896 28.1491C30.899 28.1341 30.9983 28.0774 31.0668 27.9907C31.1001 27.9464 31.1241 27.8959 31.1374 27.8421C31.1508 27.7883 31.1531 27.7324 31.1444 27.6776C31.1357 27.6229 31.1161 27.5705 31.0867 27.5235C31.0574 27.4765 31.0188 27.4359 30.9734 27.4041C30.6668 26.9641 30.2801 26.5107 29.8934 26.0974Z" fill="white"/>
</svg>

<svg xmlns="http://www.w3.org/2000/svg" fill="none" viewBox="0 0 32 32"><path fill="#fff" d="M26.16 9.457a2.45 2.45 0 0 0-.707-1.333 3.1 3.1 0 0 0-1.333-.347 73 73 0 0 0-8.4 0c-4.12.187-8.24.734-9.333 1.534a.9.9 0 0 0-.36.56c-.14.76-.203 1.533-.187 2.306-.034 3.26.122 6.519.467 9.76a.427.427 0 0 0 .84-.146 44 44 0 0 1-.227-4.774c0-2.08 0-4.333.133-5.746a1.3 1.3 0 0 1 0-.254c1.44 1 3.92 2.667 6 3.867a9.5 9.5 0 0 0 3.52 1.333 8.8 8.8 0 0 0 3.027-1.706 42 42 0 0 0 5-4.494q.068.155.093.32c.165 1.153.25 2.316.254 3.48a56 56 0 0 1-.267 6.854q.01.14 0 .28h-.547c-1.866.2-5.893.493-9.586.733-3.067.2-5.907.347-7.107.373a.467.467 0 0 0-.467.48.48.48 0 0 0 .48.48c2.187 0 9.734-.266 14.294-.52 1.506-.08 2.666-.16 3.253-.226.227-.015.45-.073.653-.174a.84.84 0 0 0 .307-.373q.14-.416.2-.853a54 54 0 0 0 .427-7.08 21.3 21.3 0 0 0-.427-4.334m-8.693 4.587c-.3.229-.639.4-1 .507a3 3 0 0 1-.934-.294c-.746-.306-1.72-.786-2.76-1.333-1.96-.933-4.12-2.133-5.386-2.827a26.1 26.1 0 0 1 6.56-.773 96 96 0 0 1 9.853 0c-.827.76-2.12 1.787-3.427 2.747a32 32 0 0 1-2.906 1.973M3.44 4.617a2.8 2.8 0 0 0-.773-.76c-.36-.24-.734-.373-1.107-.586a.427.427 0 1 0-.613.586q.33.704.786 1.334.282.311.627.546c.333.254.693.427 1.027.694a.48.48 0 0 0 .666 0 .48.48 0 0 0 0-.68 6.7 6.7 0 0 0-.613-1.134m-2 11.374q.288.039.573 0c.307 0 .547-.147.854-.16a.466.466 0 0 0 .573-.334.467.467 0 0 0-.333-.586 3.2 3.2 0 0 0-.96-.427 2.1 2.1 0 0 0-.814-.08c-.333.08-.573.227-.893.333a.426.426 0 0 0-.417.564.41.41 0 0 0 .378.276q.494.27 1.04.414m1.453 10.186c-.346.2-.68.334-1.013.534a2 2 0 0 0-.4.28 2 2 0 0 0-.347.346q-.351.486-.613 1.027a.414.414 0 1 0 .587.587c.373-.187.706-.28 1.053-.494q.208-.12.387-.28.177-.163.333-.346c.253-.32.44-.64.667-.974a.466.466 0 0 0 0-.68.48.48 0 0 0-.654 0m25.854-20.2q.515-.297.986-.653.185-.156.347-.333.16-.165.28-.36c.213-.334.32-.667.533-.987a.44.44 0 0 0 0-.6.427.427 0 0 0-.586 0c-.387.156-.76.352-1.107.587a1.7 1.7 0 0 0-.36.346 3 3 0 0 0-.28.387c-.213.333-.347.667-.533 1.013a.467.467 0 0 0 .375.797.48.48 0 0 0 .345-.197m2.746 8.014c-.386 0-.706-.187-1.093-.24a3 3 0 0 0-.493 0 3.4 3.4 0 0 0-.507 0q-.637.105-1.24.346a.48.48 0 0 0-.4.547.467.467 0 0 0 .547.4c.386 0 .746.173 1.133.227q.41.039.813 0a4.3 4.3 0 0 0 1.414-.494.4.4 0 0 0 .32-.493.427.427 0 0 0-.494-.293m-1.6 12.106a7 7 0 0 0-.533-.48l-.6-.413c-.507-.307-1.013-.547-1.533-.8a.47.47 0 0 0-.667.12.493.493 0 0 0 .12.667c.413.4.76.84 1.173 1.24q.407.399.867.733a15 15 0 0 0 1.76.907.427.427 0 0 0 .587-.08.41.41 0 0 0-.094-.587c-.306-.44-.693-.893-1.08-1.307"/></svg>
